X: 04055
T: MARTIE'S POLKA
C: Bob McQuillen 11 April 79
B: Bob's Note Book 04 #55
R: polka
Z: 2020 John Chambers <jc:trillian.mit.edu>
M: C
L: 1/8
K: D	% and Bb
AA \
| F2A2 B2A2 | fgfe d2AA | F2A2 B2A2 | GAGF E2AA | G2A2 B2A2 | efed c2dd | d2c2 B2Bc | B2A2 F2AA |
| F2A2 B2A2 | fgfe d2AA | F2A2 d2fg | f2e2 B2ee | B2e2 f3e | A2d2 e3d | cBAG F2E2 | D6 ||
|| ff \
| f2fg fedc | d2B2 B4 | f2fg f2d2 | efed c4 | e2ee f2e2 | e2fg f4 | f2fg fedc | d2B2 B4 |
| f2fg f2e2 | dedc d2B2 | f2bb b2a2 | gfed e4 | g2fg e2de | fgfe d2B2 | f2fg fedc | d2B2 B2 |]
%%begintext align
%% For Martie Fleisher of
%% Brattleboro, Vermont.
%% Did you ever watch her
%% dance? She _sparkles_!
%%endtext

%%sep 1 1 500

%%sep 1 1 500

